X:835
T: Dooagh
S: B.Breathnach:"Ceol Rince na hEireann" IV/75 (gan ainm)
Z: B.Black
L: 1/8
M: 2/4
R: polka
Q: 280
K: G
D|GG/G/ GB|dc AB|cc/c/ cd|ed Bd|
GG/G/ GB|dc AB|cA eA|AG G :|
d|g2 fe|ed Bd|cc/c/ ce|ed Bd|
g2 fe|ed Bd|cA eA|AG G :|
